X:1
T:Somebody Did a Kind Deed Today
T:Somebody Did a Kind Deed Today
T:A. F. Loud, 1908
T:Sarah Martyn Wright, 1906
T:Public Domain Courtesy of the Cyber Hymnal™
T:Public Domain Courtesy of the Cyber Hymnal™
C:A. F. Loud, 1908
Z:Public Domain
Z:Courtesy of the Cyber Hymnal™
%%score ( 1 2 ) ( 3 4 )
L:1/8
Q:1/4=87
M:6/8
K:Eb
V:1 treble 
V:2 treble 
V:3 bass 
V:4 bass 
V:1
 [EG]>[EG][EG] ([EG]F)[EG] | ([FA][EB])[FA] !fermata![EG]2 A/A/ | z2 B2 [DGB]/[D^FB]/ x | %3
w: 1.~Some- bo- dy did~a * kind|deed * to- day, * *|Was it you?|
w: 2.~Some- bo- dy helped * an|erring * one’s feet, * *|Was it you?|
w: 3.~Some- bo- dy rest- * ed|a * tired one, * *|Was it you?|
 [EGB]3- [EGB]2 ([EG]/[EG]/) | ([EG]>[EG])[EG] [EG][DF][EG] | ([EA][EB])[FA] [EG]2 B/e/ | %6
w: ~ * Somebo- *|dy * sent a kind thought~on|its * way, Was * *|
w: The * path *|of * vir- tue and truth|to * keep; Was * *|
w: Who~had * toiled *|all * day till the set-|ting * sun; Was * *|
 z2 B/ d2 [Ad]/[Ac]/ x/ | [FB]3- !fermata![FB]2 z | [Ac]>[Ac][Ac] [Bd]2 [Ac] | %9
w: it you? Was it|you? *|Some- bo- dy spoke a|
w: it you? Was it|you? *|Whis- pered of peace and|
w: it you? Was it|you? *|Finished for him the task|
 [GB]2 [GB] [Gc]2 [GB]/[GB]/ | [FA]>[FA][FA] [FB][EB][DA] | %11
w: lov- ing word, That an|an- swer- ing chord in a|
w: sins for- given, Of a|be- t- ter life and a|
w: half done, En- cour- aged|his heart for the days to|
 (GA)[E=A] !fermata![EB]2 ([_DE]/[DE]/) | ([CE]>[=B,D])[CE] ([Ee][Ed])[Ec] | %13
w: hard * heart stirred, Re- *|calling * a long * lost|
w: hope * of Heaven; And~the *|chains * that bound * his|
w: come, * And told of *|vic- * to- ries * yet|
 ([EB][EG])[Ec] [EB]2 G/A/ | z2 B2 [DGB]/[D^FB]/ x | [EGB]3- !fermata![EGB]2 z |] %16
w: voice, * once heard. * *|||
w: soul * were riven; * *|Was it you?|it *|
w: to * be won. * *|||
V:2
 x4 F x | x6 | B3- B,/E/ (CE) | x6 | x6 | x6 | d3- F/ GB x/ | x6 | x6 | x6 | x6 | E2 x4 | x6 | x6 | %14
w: ||* Was it you? *||||||||||||
w: ||* Was it you? *||||||||||||
w: ||* Was it you? *||||||||||||
 B3- B,/E/ (CE) | x6 |] %16
w: ||
w: * * * Was *||
w: ||
V:3
 [E,B,]>[E,B,][E,B,] ([E,B,][D,B,])[E,B,] | ([D,B,][C,B,])[D,B,] !fermata![E,B,]2 z | %2
 z2 [B,,G,]/[B,,G,]/ [B,,A,]2 [B,,B,]/[B,,B,]/ | B,3- [E,B,]2 ([E,B,]/[E,B,]/) | %4
 ([E,B,]>[E,B,])[E,B,] [E,B,][A,B,][G,B,] | ([F,C][E,C])[D,B,] [E,B,]2 z | %6
 z2 [F,B,]/[F,D]/ [F,E]2 [F,E]/[F,E]/ | D3- !fermata![B,D]2 z | [B,,D]>[B,,D][B,,D] B,C[B,,D] | %9
 [C,E]2 [E,B,] B,C[_E,_D]/[E,D]/ | [F,C]>[F,C][E,_C] [D,B,][_C,B,][B,,B,] | %11
 B,F,[E,^F,] !fermata![E,G,]2 ([G,B,]/[G,B,]/) | A,>A,A, ([A,C][A,B,])[A,,A,] | %13
 ([E,G,][E,B,])[E,A,] [E,G,]2 z | z2 [B,,G,]/[B,,G,]/ [B,,A,]2 [B,,B,]/[B,,B,]/ | %15
 B,3- !fermata![E,B,]2 z |] %16
V:4
 x6 | x6 | x6 | E,2 B,,/B,,/ x3 | x6 | x6 | x6 | B,2 F,/F,/ x3 | x3 B,,2 x | x3 =E,2 x | x6 | %11
 E,2 x4 | (A,>A,)A, x3 | x6 | x6 | E,2 B,,/B,,/ x3 |] %16

